X: 27821
T: Moss Murphy's
R: polka
M: 2/4
K: Dmajor
FA de|f2 ed|BA FA|BA FD|
FA de|f2 ed|ea ag|fd d2:|
a2 ge|f2 ed|BA FA|BA FD|
a2 ge|f2 ed|ea ag|fd d2:|

